src/img/icons/key.svg

<?xml version="1.0" encoding="UTF-8"?>
<svg width="23px" height="24px" viewBox="0 0 23 24" version="1.1" xmlns="http://www.w3.org/2000/svg" xmlns:xlink="http://www.w3.org/1999/xlink">
    <!-- Generator: Sketch 50 (54983) - http://www.bohemiancoding.com/sketch -->
    <title>key</title>
    <desc>Created with Sketch.</desc>
    <defs></defs>
    <g id="Welcome" stroke="none" stroke-width="1" fill="none" fill-rule="evenodd">
        <g id="2-2-profile" transform="translate(-237.000000, -248.000000)" fill="#FFFFFF" fill-rule="nonzero">
            <g id="Group-6" transform="translate(-39.000000, -8.000000)">
                <g id="Group-5" transform="translate(248.000000, 233.000000)">
                    <g id="key" transform="translate(28.000000, 23.000000)">
                        <path d="M13.5134184,16.5494735 L11.4345993,14.4539558 L12.9010274,12.9749302 C15.5001653,14.3872756 18.7959913,14.0169226 20.9930147,11.8055556 C23.6689951,9.10401159 23.6689951,4.72382509 20.9930147,2.02606024 C18.3136737,-0.675353412 13.968744,-0.675353412 11.2892091,2.02606024 C9.09593402,4.2375576 8.73039895,7.56434916 10.1303672,10.1809283 L0.570617032,19.8218344 C-0.192185373,20.5899715 -0.188223402,21.843876 0.570617032,22.6158363 C0.921669814,22.9729586 1.40135907,23.2063455 2.05346064,23.2063455 C2.70556221,23.2063455 2.92502662,22.9931453 3.38244548,22.5505155 C3.83986434,22.1078857 3.98221981,21.9437119 4.5052668,21.4429025 L6.58376279,23.5386808 C6.966812,23.9246064 7.58685151,23.9246064 7.96957758,23.5386808 L9.35539237,22.1417125 C9.73889398,21.7558521 9.73889398,21.1306045 9.35539237,20.7447441 L7.27676713,18.6489658 L8.66238804,17.247697 L10.7419181,19.3474499 C11.1247088,19.7333755 11.7450068,19.7333755 12.1277329,19.3474499 L13.5134184,17.9504816 C13.8961445,17.5605163 13.8961445,16.9395691 13.5134184,16.5494735 Z M14.0418234,4.84286712 C15.1910839,3.68515565 17.057209,3.68515565 18.2064695,4.84286712 C19.3514609,5.99673433 19.3514609,7.87997018 18.2064695,9.03403286 C17.057209,10.1879001 15.1910839,10.1879001 14.0418234,9.03403286 C12.8961852,7.88003534 12.8961852,5.99679948 14.0418234,4.84286712 Z" id="Shape"></path>
                    </g>
                </g>
            </g>
        </g>
    </g>
</svg>

<svg width="23" height="24" xmlns="http://www.w3.org/2000/svg"><path d="M13.513 16.55l-2.078-2.096 1.466-1.48c2.6 1.413 5.895 1.043 8.092-1.168 2.676-2.702 2.676-7.082 0-9.78a6.823 6.823 0 00-9.704 0C9.096 4.238 8.73 7.564 10.13 10.181L.57 19.82a1.995 1.995 0 000 2.795c.352.357.831.59 1.483.59.653 0 .872-.213 1.33-.655.457-.443.6-.607 1.122-1.108l2.079 2.096a.974.974 0 001.386 0l1.385-1.397a.992.992 0 000-1.397l-2.078-2.096 1.385-1.401 2.08 2.1a.974.974 0 001.386 0l1.385-1.398a.998.998 0 000-1.4zm.529-11.707a2.931 2.931 0 014.164 0 2.986 2.986 0 010 4.191 2.938 2.938 0 01-4.164 0 2.985 2.985 0 010-4.191z" fill="#FFF"/></svg>
